X:1
T:Nôs Calan [New Year's Eve] (1781)
M:C
L:1/4
S:Aloys Fleischmann, ed., Sources of Irish Traditional Music no. 2052
K:G
d3/2c/ B A|G A B G|A/B/c/d/ c B/A/|G ~F G2:|
|:A B c A|B c d A|B/c/d c/d/ e|=f e d2|
d3/2 c/ B A|G A B G|A/B/c/d/ c B/A/|G ~F G2:|]
